app/dist/common/images/carmax.svg

<svg height="18" width="18" xmlns="http://www.w3.org/2000/svg"><path d="m0 0h18v18h-18z" fill="#043361"/><path d="m8 12h3v1h-3zm4 0h3v1h-3zm-6.36-2.784c-.026.438-.201.5-.458.5-.5 0-.541-.566-.541-1.326 0-.802.048-1.328.561-1.328.244 0 .457.065.48.493h1.828c-.007-1.465-1.086-1.791-2.349-1.791-1.693 0-2.623 1.05-2.575 2.605 0 1.583.813 2.647 2.568 2.647 1.243 0 2.356-.425 2.356-1.8z" fill="#ffd520"/><path d="m8 11h2v-3.143c0-.39.157-.474.336-.474.18 0 .301.114.301.455v3.162h1.71v-3.143c0-.39.175-.447.355-.447s.298.087.298.428v3.162h2v-3.346c0-1.295-.57-1.78-1.356-1.78-.445 0-.913.183-1.233.884-.24-.603-.571-.884-1.172-.884-.444 0-.92.183-1.239 1.01v-.884h-2z" fill="#fff"/></svg>

<!-- by TradingView --><svg width="18" height="18" xmlns="http://www.w3.org/2000/svg"><path fill="#043361" d="M0 0h18v18H0z"/><path d="M8 12h3v1H8v-1zM12 12h3v1h-3v-1zM5.64 9.216c-.026.438-.201.5-.458.5-.5 0-.541-.566-.541-1.326 0-.802.048-1.328.561-1.328.244 0 .457.065.48.493H7.51C7.503 6.09 6.424 5.764 5.161 5.764c-1.693 0-2.623 1.05-2.575 2.605 0 1.583.813 2.647 2.568 2.647 1.243 0 2.356-.425 2.356-1.8H5.64z" fill="#FFD520"/><path d="M8 11h2V7.857c0-.39.157-.474.336-.474.18 0 .301.114.301.455V11h1.71V7.857c0-.39.175-.447.355-.447s.298.087.298.428V11h2V7.654c0-1.295-.57-1.78-1.356-1.78-.445 0-.913.183-1.233.884-.24-.603-.571-.884-1.172-.884-.444 0-.92.183-1.239 1.01V6H8v5z" fill="#fff"/></svg>
